packages/axiom-components/src/Pictogram/svgs/networks.svg

<?xml version="1.0" encoding="UTF-8"?>
<svg width="16px" height="16px" viewBox="0 0 16 16" version="1.1" xmlns="http://www.w3.org/2000/svg" xmlns:xlink="http://www.w3.org/1999/xlink">
    <!-- Generator: Sketch 46.2 (44496) - http://www.bohemiancoding.com/sketch -->
    <title>Networks</title>
    <desc>Created with Sketch.</desc>
    <defs></defs>
    <g id="Axiom-Icons" stroke="none" stroke-width="1" fill="none" fill-rule="evenodd">
        <g id="Networks" fill="#000000">
            <path d="M8.75,5.6272 L8.75,3.3252 C8.522,3.4342 8.27,3.5002 8,3.5002 C7.73,3.5002 7.478,3.4342 7.25,3.3252 L7.25,5.6272 C7.488,5.5522 7.737,5.5002 8,5.5002 C8.263,5.5002 8.512,5.5522 8.75,5.6272" id="Path" fill-opacity="0.75"></path>
            <path d="M7.25,10.3728 L7.25,12.6748 C7.478,12.5658 7.73,12.4998 8,12.4998 C8.27,12.4998 8.522,12.5658 8.75,12.6748 L8.75,10.3728 C8.512,10.4478 8.263,10.4998 8,10.4998 C7.737,10.4998 7.488,10.4478 7.25,10.3728" id="Path" fill-opacity="0.75"></path>
            <path d="M6.8259,5.8055 L5.2159,4.1955 C5.1309,4.4215 5.0009,4.6355 4.8179,4.8175 C4.6189,5.0165 4.3829,5.1505 4.1329,5.2335 L5.7769,6.8785 C6.0089,6.4205 6.3739,6.0475 6.8259,5.8055" id="Path" fill-opacity="0.75"></path>
            <path d="M9.1219,10.2228 L10.7659,11.8668 C10.8489,11.6168 10.9829,11.3808 11.1819,11.1818 C11.3649,10.9998 11.5779,10.8698 11.8049,10.7848 L10.1949,9.1738 C9.9519,9.6258 9.5799,9.9908 9.1219,10.2228" id="Path" fill-opacity="0.75"></path>
            <path d="M12.653,7.2903 L10.385,7.2903 C10.453,7.5163 10.5,7.7513 10.5,8.0003 C10.5,8.2783 10.444,8.5403 10.36,8.7903 L12.697,8.7903 C12.575,8.5523 12.5,8.2863 12.5,8.0003 C12.5,7.7463 12.556,7.5073 12.653,7.2903" id="Path" fill-opacity="0.75"></path>
            <path d="M5.6147,7.2903 L3.3467,7.2903 C3.4437,7.5073 3.4997,7.7463 3.4997,8.0003 C3.4997,8.2863 3.4247,8.5523 3.3037,8.7903 L5.6397,8.7903 C5.5557,8.5403 5.4997,8.2783 5.4997,8.0003 C5.4997,7.7513 5.5477,7.5163 5.6147,7.2903" id="Path" fill-opacity="0.75"></path>
            <path d="M5.8055,9.1741 L4.1955,10.7841 C4.4215,10.8691 4.6355,10.9991 4.8185,11.1821 C5.0165,11.3811 5.1505,11.6171 5.2335,11.8671 L6.8785,10.2231 C6.4205,9.9911 6.0475,9.6261 5.8055,9.1741" id="Path" fill-opacity="0.75"></path>
            <path d="M10.2228,6.8781 L11.8668,5.2341 C11.6168,5.1511 11.3808,5.0171 11.1818,4.8181 C10.9998,4.6351 10.8698,4.4221 10.7848,4.1951 L9.1738,5.8051 C9.6258,6.0481 9.9908,6.4201 10.2228,6.8781" id="Path" fill-opacity="0.75"></path>
            <path d="M8,5.5 C6.619,5.5 5.5,6.619 5.5,8 C5.5,9.381 6.619,10.5 8,10.5 C9.381,10.5 10.5,9.381 10.5,8 C10.5,6.619 9.381,5.5 8,5.5 M8,6.75 C8.689,6.75 9.25,7.311 9.25,8 C9.25,8.689 8.689,9.25 8,9.25 C7.311,9.25 6.75,8.689 6.75,8 C6.75,7.311 7.311,6.75 8,6.75" id="Dot"></path>
            <path d="M9.75,1.75 C9.75,0.784 8.966,0 8,0 C7.034,0 6.25,0.784 6.25,1.75 C6.25,2.716 7.034,3.5 8,3.5 C8.966,3.5 9.75,2.716 9.75,1.75" id="Oval"></path>
            <path d="M9.75,14.25 C9.75,13.284 8.966,12.5 8,12.5 C7.034,12.5 6.25,13.284 6.25,14.25 C6.25,15.216 7.034,16 8,16 C8.966,16 9.75,15.216 9.75,14.25" id="Oval"></path>
            <path d="M13.6569,4.818 C14.3399,4.135 14.3399,3.027 13.6569,2.343 C12.9739,1.66 11.8659,1.66 11.1819,2.343 C10.4989,3.027 10.4989,4.135 11.1819,4.818 C11.8659,5.501 12.9739,5.501 13.6569,4.818" id="Oval"></path>
            <path d="M4.818,13.6569 C5.501,12.9739 5.501,11.8659 4.818,11.1819 C4.135,10.4989 3.027,10.4989 2.343,11.1819 C1.66,11.8659 1.66,12.9739 2.343,13.6569 C3.027,14.3399 4.135,14.3399 4.818,13.6569" id="Oval"></path>
            <path d="M14.25,9.75 C15.216,9.75 16,8.966 16,8 C16,7.034 15.216,6.25 14.25,6.25 C13.284,6.25 12.5,7.034 12.5,8 C12.5,8.966 13.284,9.75 14.25,9.75" id="Oval"></path>
            <path d="M1.75,9.75 C2.716,9.75 3.5,8.966 3.5,8 C3.5,7.034 2.716,6.25 1.75,6.25 C0.784,6.25 0,7.034 0,8 C0,8.966 0.784,9.75 1.75,9.75" id="Oval"></path>
            <path d="M11.182,13.6569 C11.865,14.3399 12.973,14.3399 13.657,13.6569 C14.34,12.9739 14.34,11.8659 13.657,11.1819 C12.973,10.4989 11.865,10.4989 11.182,11.1819 C10.499,11.8659 10.499,12.9739 11.182,13.6569" id="Oval"></path>
            <path d="M2.3431,4.818 C3.0261,5.501 4.1341,5.501 4.8181,4.818 C5.5011,4.135 5.5011,3.027 4.8181,2.343 C4.1341,1.66 3.0261,1.66 2.3431,2.343 C1.6601,3.027 1.6601,4.135 2.3431,4.818" id="Oval"></path>
        </g>
    </g>
</svg>

<svg height="16" viewBox="0 0 16 16" width="16" xmlns="http://www.w3.org/2000/svg"><g fill-rule="evenodd"><g fill-opacity=".75"><path d="m8.75 5.6272v-2.302c-.228.109-.48.175-.75.175s-.522-.066-.75-.175v2.302c.238-.075.487-.127.75-.127s.512.052.75.127"/><path d="m7.25 10.3728v2.302c.228-.109.48-.175.75-.175s.522.066.75.175v-2.302c-.238.075-.487.127-.75.127s-.512-.052-.75-.127"/><path d="m6.8259 5.8055-1.61-1.61c-.085.226-.215.44-.398.622-.199.199-.435.333-.685.416l1.644 1.645c.232-.458.597-.831 1.049-1.073"/><path d="m9.1219 10.2228 1.644 1.644c.083-.25.217-.486.416-.685.183-.182.396-.312.623-.397l-1.61-1.611c-.243.452-.615.817-1.073 1.049"/><path d="m12.653 7.2903h-2.268c.068.226.115.461.115.71 0 .278-.056.54-.14.79h2.337c-.122-.238-.197-.504-.197-.79 0-.254.056-.493.153-.71"/><path d="m5.6147 7.2903h-2.268c.097.217.153.456.153.71 0 .286-.075.552-.196.79h2.336c-.084-.25-.14-.512-.14-.79 0-.249.048-.484.115-.71"/><path d="m5.8055 9.1741-1.61 1.61c.226.085.44.215.623.398.198.199.332.435.415.685l1.645-1.644c-.458-.232-.831-.597-1.073-1.049"/><path d="m10.2228 6.8781 1.644-1.644c-.25-.083-.486-.217-.685-.416-.182-.183-.312-.396-.397-.623l-1.611 1.61c.452.243.817.615 1.049 1.073"/></g><path d="m8 5.5c-1.381 0-2.5 1.119-2.5 2.5s1.119 2.5 2.5 2.5 2.5-1.119 2.5-2.5-1.119-2.5-2.5-2.5m0 1.25c.689 0 1.25.561 1.25 1.25s-.561 1.25-1.25 1.25-1.25-.561-1.25-1.25.561-1.25 1.25-1.25"/><path d="m9.75 1.75c0-.966-.784-1.75-1.75-1.75s-1.75.784-1.75 1.75.784 1.75 1.75 1.75 1.75-.784 1.75-1.75"/><path d="m9.75 14.25c0-.966-.784-1.75-1.75-1.75s-1.75.784-1.75 1.75.784 1.75 1.75 1.75 1.75-.784 1.75-1.75"/><path d="m13.6569 4.818c.683-.683.683-1.791 0-2.475-.683-.683-1.791-.683-2.475 0-.683.684-.683 1.792 0 2.475.684.683 1.792.683 2.475 0"/><path d="m4.818 13.6569c.683-.683.683-1.791 0-2.475-.683-.683-1.791-.683-2.475 0-.683.684-.683 1.792 0 2.475.684.683 1.792.683 2.475 0"/><path d="m14.25 9.75c.966 0 1.75-.784 1.75-1.75s-.784-1.75-1.75-1.75-1.75.784-1.75 1.75.784 1.75 1.75 1.75"/><path d="m1.75 9.75c.966 0 1.75-.784 1.75-1.75s-.784-1.75-1.75-1.75-1.75.784-1.75 1.75.784 1.75 1.75 1.75"/><path d="m11.182 13.6569c.683.683 1.791.683 2.475 0 .683-.683.683-1.791 0-2.475-.684-.683-1.792-.683-2.475 0-.683.684-.683 1.792 0 2.475"/><path d="m2.3431 4.818c.683.683 1.791.683 2.475 0 .683-.683.683-1.791 0-2.475-.684-.683-1.792-.683-2.475 0-.683.684-.683 1.792 0 2.475"/></g></svg>
